static/assets/images/networks/zklink-nova.svg

<svg width="256" height="256" viewBox="0 0 256 256" fill="none" xmlns="http://www.w3.org/2000/svg">
<path d="M128 256C198.692 256 256 198.692 256 128C256 57.3075 198.692 0 128 0C57.3075 0 0 57.3075 0 128C0 198.692 57.3075 256 128 256Z" fill="black"/>
<path fill-rule="evenodd" clip-rule="evenodd" d="M127.779 28L79.8927 55.7277V104.795L37.5 129.342V184.772L85.386 212.5L127.75 187.969L170.114 212.5L218 184.772V129.342L175.665 104.828V55.7277L127.779 28ZM90.9368 62.0973L127.779 40.7642L164.621 62.0973V104.789L135.76 121.5C133.634 119.689 130.877 118.595 127.865 118.595C124.82 118.595 122.036 119.713 119.9 121.559L90.9368 104.789V62.0973ZM115.733 131.951L85.386 114.378L48.5439 135.711V178.403L85.386 199.735L122.221 178.406V141.591C118.658 139.726 116.131 136.148 115.733 131.951ZM133.272 141.712V178.403L170.114 199.735L206.956 178.403V135.711L170.136 114.391L140.006 131.837C139.636 136.176 136.993 139.866 133.272 141.712Z" fill="#03D498"/>
<path fill-rule="evenodd" clip-rule="evenodd" d="M175.367 105.009L127.714 77.4133L80.061 105.009V160.2L127.714 187.795L175.367 160.2V105.009ZM163.5 112.091L127.851 91.4384L92.2007 112.091V153.397L127.851 174.05L163.5 153.397V112.091Z" fill="white"/>
</svg>

<svg xmlns="http://www.w3.org/2000/svg" fill="none" viewBox="0 0 256 256"><path fill="#000" d="M128 256c70.692 0 128-57.308 128-128S198.692 0 128 0 0 57.308 0 128s57.308 128 128 128"/><path fill="#03D498" fill-rule="evenodd" d="M127.779 28 79.893 55.728v49.067L37.5 129.342v55.43L85.386 212.5l42.364-24.531 42.364 24.531L218 184.772v-55.43l-42.335-24.514v-49.1zM90.937 62.097l36.842-21.333 36.842 21.333v42.692L135.76 121.5a12.14 12.14 0 0 0-7.895-2.905 12.14 12.14 0 0 0-7.965 2.964l-28.963-16.77zm24.796 69.854-30.347-17.573-36.842 21.333v42.692l36.842 21.332 36.835-21.329v-36.815a12.2 12.2 0 0 1-6.488-9.64m17.539 9.761v36.691l36.842 21.332 36.842-21.332v-42.692l-36.82-21.32-30.13 17.446c-.37 4.339-3.013 8.029-6.734 9.875" clip-rule="evenodd"/><path fill="#fff" fill-rule="evenodd" d="m175.367 105.009-47.653-27.596-47.653 27.596V160.2l47.653 27.595 47.653-27.595zm-11.867 7.082-35.649-20.653-35.65 20.653v41.306l35.65 20.653 35.649-20.653z" clip-rule="evenodd"/></svg>
